icons/travel-luggage-3.svg

<svg fill="none" viewBox="0 0 24 24"><path stroke="currentColor" stroke-linecap="round" stroke-linejoin="round" stroke-width="2" d="M7.8 19.2v-10.8m7.8 10.8v-4.2m-7.2-7.2v-2.4a1.2 1.2 0 0 1 1.2-1.2h4.2a1.2 1.2 0 0 1 1.2 1.2v2.4m.6 3h-3v4.2h5.4v-4.2zm0 0v-3m0 0h-10.8a2.4 2.4 0 0 0-2.4 2.4v7.2a2.4 2.4 0 0 0 2.4 2.4h14.4a2.4 2.4 0 0 0 2.4-2.4v-7.2a2.4 2.4 0 0 0-2.4-2.4z"/></svg>

<svg fill="none" viewBox="0 0 24 24"><path stroke="currentColor" stroke-linecap="round" stroke-linejoin="round" stroke-width="2" d="M7.8 19.2V8.4m7.8 10.8V15M8.4 7.8V5.4a1.2 1.2 0 0 1 1.2-1.2h4.2A1.2 1.2 0 0 1 15 5.4v2.4m.6 3h-3V15H18v-4.2zm0 0v-3m0 0H4.8a2.4 2.4 0 0 0-2.4 2.4v7.2a2.4 2.4 0 0 0 2.4 2.4h14.4a2.4 2.4 0 0 0 2.4-2.4v-7.2a2.4 2.4 0 0 0-2.4-2.4z"/></svg>
